svg/Emoji/emoji-angry-twotone.svg

<svg xmlns="http://www.w3.org/2000/svg" width="24" height="24" viewBox="0 0 24 24">
    <g fill="none" stroke="currentColor" stroke-linecap="round" stroke-width="2">
        <path d="M12 3C16.9706 3 21 7.02944 21 12C21 16.9706 16.9706 21 12 21C7.02944 21 3 16.9706 3 12C3 7.02944 7.02944 3 12 3Z" fill="currentColor" fill-opacity="0" stroke-dasharray="60" stroke-dashoffset="60">
            <animate attributeName="stroke-dashoffset" values="60;0" dur="0.5s" fill="freeze" />
            <animate attributeName="fill-opacity" values="0;0.3" begin="1.2s" dur="0.15s" fill="freeze" />
        </path>
        <path d="M8 16C8.5 15 9.79086 14 12 14C14.2091 14 15.5 15 16 16" stroke-dasharray="14" stroke-dashoffset="14">
            <animate attributeName="stroke-dashoffset" values="14;0" begin="1s" dur="0.2s" fill="freeze" />
        </path>
        <g stroke-width="1" stroke-dashoffset="5" stroke-dasharray="5">
            <path d="M9.5 8.5L7.5 7.5">
                <animate attributeName="stroke-dashoffset" values="5;0" begin="0.6s" dur="0.2s" fill="freeze" />
            </path>
            <path d="M14.5 8.5L16.5 7.5">
                <animate attributeName="stroke-dashoffset" values="5;0" begin="0.8s" dur="0.2s" fill="freeze" />
            </path>
        </g>
    </g>
    <g fill="currentColor">
        <ellipse cx="9" cy="9.5" rx="1" ry="1.5" fill-opacity="0">
            <animate attributeName="fill-opacity" values="0;1" begin="0.6s" dur="0.2s" fill="freeze" />
        </ellipse>
        <ellipse cx="15" cy="9.5" rx="1" ry="1.5" fill-opacity="0">
            <animate attributeName="fill-opacity" values="0;1" begin="0.8s" dur="0.2s" fill="freeze" />
        </ellipse>
    </g>
</svg>

<svg xmlns="http://www.w3.org/2000/svg" width="24" height="24" viewBox="0 0 24 24">
	<g fill="none" stroke="currentColor" stroke-width="2" stroke-linecap="round" stroke-linejoin="round">
		<path d="M12 3c4.97 0 9 4.03 9 9c0 4.97 -4.03 9 -9 9c-4.97 0 -9 -4.03 -9 -9c0 -4.97 4.03 -9 9 -9" fill="currentColor" fill-opacity="0" stroke-dasharray="64" stroke-dashoffset="64">
			<animate attributeName="fill-opacity" values="0;0.3" begin="0.7s" dur="0.15s" fill="freeze" />
			<animate attributeName="stroke-dashoffset" values="64;0" dur="0.6s" fill="freeze" />
		</path>
		<path d="M9 9v1" stroke-dasharray="4" stroke-dashoffset="4">
			<animate attributeName="stroke-dashoffset" values="4;0" begin="0.85s" dur="0.2s" fill="freeze" />
		</path>
		<path d="M9.5 8.5l-2 -1" stroke-width="1" stroke-dasharray="4" stroke-dashoffset="4">
			<animate attributeName="stroke-dashoffset" values="4;0" begin="0.85s" dur="0.2s" fill="freeze" />
		</path>
		<path d="M15 9v1" stroke-dasharray="4" stroke-dashoffset="4">
			<animate attributeName="stroke-dashoffset" values="4;0" begin="1.05s" dur="0.2s" fill="freeze" />
		</path>
		<path d="M14.5 8.5l2 -1" stroke-width="1" stroke-dasharray="4" stroke-dashoffset="4">
			<animate attributeName="stroke-dashoffset" values="4;0" begin="1.05s" dur="0.2s" fill="freeze" />
		</path>
		<path d="M8 16c0.5 -1 1.79 -2 4 -2c2.21 0 3.5 1 4 2" stroke-dasharray="12" stroke-dashoffset="12">
			<animate attributeName="stroke-dashoffset" values="12;0" begin="1.25s" dur="0.2s" fill="freeze" />
		</path>
	</g>
</svg>
